_includes/icons/color-maintenance.svg

<svg fill="#666" height="50" viewBox="0 0 48 48" width="50" xmlns="http://www.w3.org/2000/svg"><path d="m12.300781 40.800781c.097657-.101562 1.300782-1.402343 3.199219-3.402343 2.800781-2.898438 15-15.898438 15.199219-16.097657.902344-.902343 5.199219 2.398438 8.800781-1.199218 2.300781-2.300782 3.101563-5.203125 2.101563-8.703125l-4.601563 4.601562s-1.699219 0-3.398437-1.601562c-1.601563-1.699219-1.601563-3.398438-1.601563-3.398438l4.601563-4.5c-3.300782-1-6.5-.199219-8.800782 2.101563-3.5 3.5-.402343 7.898437-1.300781 8.796875-.199219.101562-17.300781 16.402343-17.5 16.601562-1.699219 1.601563-1.800781 1.699219-1.898437 1.699219-1.402344 1.5-1.5 3.902344-.101563 5.300781 1.398438 1.398438 3.800781 1.300781 5.300781-.199219zm-2.300781-4.300781c.800781 0 1.5.699219 1.5 1.5s-.699219 1.5-1.5 1.5-1.5-.699219-1.5-1.5.601563-1.5 1.5-1.5z" fill="#607d8b"/><path d="m40 37-25.5-25.300781-2.5-3.699219-4.601562-2-1.398438 1.398438 2 4.601562 3.699219 2.5 25.5 25.300781z" fill="#b0bec5"/><path d="m26.5 20.800781c-2.101562-5-3.300781-2.300781-5.699219 0-2.300781 2.300782-5 3.5 0 5.699219 4.898438 2.101563 10.300782 11.699219 12.398438 13.898438 2.101562 2.101562 4.699219 2.300781 7.101562 0 2.300782-2.296875 2.097657-4.898438 0-7.097657-2.101562-2.101562-11.699218-7.5-13.800781-12.5z" fill="#ffc107"/><path d="m20.800781 20.800781c2.300782-2.300781 3.5-5 5.699219 0l-5.699219 5.699219c-4.902343-2.101562-2.300781-3.300781 0-5.699219z" fill="#ff9800"/></svg>

<svg xmlns="http://www.w3.org/2000/svg" viewBox="0 0 48 48" width="50" height="50" fill="#666"><path d="M 12.300781 40.800781 C 12.398438 40.699219 13.601563 39.398438 15.5 37.398438 C 18.300781 34.5 30.5 21.5 30.699219 21.300781 C 31.601563 20.398438 35.898438 23.699219 39.5 20.101563 C 41.800781 17.800781 42.601563 14.898438 41.601563 11.398438 L 37 16 C 37 16 35.300781 16 33.601563 14.398438 C 32 12.699219 32 11 32 11 L 36.601563 6.5 C 33.300781 5.5 30.101563 6.300781 27.800781 8.601563 C 24.300781 12.101563 27.398438 16.5 26.5 17.398438 C 26.300781 17.5 9.199219 33.800781 9 34 C 7.300781 35.601563 7.199219 35.699219 7.101563 35.699219 C 5.699219 37.199219 5.601563 39.601563 7 41 C 8.398438 42.398438 10.800781 42.300781 12.300781 40.800781 Z M 10 36.5 C 10.800781 36.5 11.5 37.199219 11.5 38 C 11.5 38.800781 10.800781 39.5 10 39.5 C 9.199219 39.5 8.5 38.800781 8.5 38 C 8.5 37.199219 9.101563 36.5 10 36.5 Z" fill="#607d8b"/><path d="M 40 37 L 14.5 11.699219 L 12 8 L 7.398438 6 L 6 7.398438 L 8 12 L 11.699219 14.5 L 37.199219 39.800781 Z" fill="#b0bec5"/><path d="M 26.5 20.800781 C 24.398438 15.800781 23.199219 18.5 20.800781 20.800781 C 18.5 23.101563 15.800781 24.300781 20.800781 26.5 C 25.699219 28.601563 31.101563 38.199219 33.199219 40.398438 C 35.300781 42.5 37.898438 42.699219 40.300781 40.398438 C 42.601563 38.101563 42.398438 35.5 40.300781 33.300781 C 38.199219 31.199219 28.601563 25.800781 26.5 20.800781 Z" fill="#ffc107"/><path d="M 20.800781 20.800781 C 23.101563 18.5 24.300781 15.800781 26.5 20.800781 L 20.800781 26.5 C 15.898438 24.398438 18.5 23.199219 20.800781 20.800781 Z" fill="#ff9800"/></svg>
